Assets/SVG APPS/DevHome.svg

<?xml version="1.0" encoding="UTF-8"?>
<svg xmlns="http://www.w3.org/2000/svg" xmlns:xlink="http://www.w3.org/1999/xlink" width="95px" height="95px" viewBox="0 0 95 95" version="1.1">
<g id="surface1">
<path style="fill:none;stroke-width:2.7832;stroke-linecap:butt;stroke-linejoin:miter;stroke:rgb(0%,0%,0%);stroke-opacity:1;stroke-miterlimit:1.8555;" d="M 24.699219 87 L 70.300781 87 L 93.101562 47.5 L 70.300781 8 L 24.699219 8 L 1.898438 47.5 Z M 24.699219 87 "/>
<path style="fill:none;stroke-width:2;stroke-linecap:butt;stroke-linejoin:miter;stroke:rgb(0%,0%,0%);stroke-opacity:1;stroke-miterlimit:10;" d="M 49.199219 16.398438 C 53.5 18 57.199219 20.699219 60.898438 23.300781 C 62.398438 24.300781 63.898438 25.398438 65.398438 26.398438 C 66.300781 27.101562 67.398438 27.800781 68.300781 28.398438 C 68.800781 28.699219 69.199219 29 69.699219 29.300781 C 75.699219 33.601562 75.699219 33.601562 76.300781 37 C 76.398438 39 76.398438 40.800781 76.398438 42.601562 C 76.398438 43.300781 76.398438 44 76.398438 44.699219 C 76.398438 46.199219 76.398438 47.699219 76.398438 49.101562 C 76.398438 51.300781 76.398438 53.601562 76.398438 55.800781 C 76.398438 57.199219 76.398438 58.699219 76.398438 60.101562 C 76.398438 60.800781 76.398438 61.5 76.398438 62.199219 C 76.398438 65.300781 76.300781 67.5 74.199219 70 C 71.800781 72.300781 70.601562 72.5 67.398438 72.5 C 66.398438 72.5 66.398438 72.5 65.300781 72.5 C 64.601562 72.5 63.800781 72.5 63.101562 72.5 C 62.398438 72.5 61.601562 72.5 60.898438 72.5 C 60.199219 72.5 59.5 72.5 58.800781 72.5 C 58.101562 72.5 57.5 72.5 56.800781 72.5 C 55.300781 72.398438 55.300781 72.398438 54.601562 71.699219 C 54.5 70.398438 54.5 69.199219 54.5 68 C 54.5 67.199219 54.5 66.5 54.398438 65.699219 C 54.398438 64.101562 54.300781 62.5 54.300781 60.898438 C 54.300781 60.101562 54.300781 59.398438 54.199219 58.601562 C 54.199219 57.898438 54.199219 57.199219 54.199219 56.5 C 53.898438 54.398438 53.5 53.699219 51.800781 52.601562 C 49.699219 52.300781 49.699219 52.300781 47.5 52.398438 C 46.699219 52.398438 46 52.398438 45.199219 52.398438 C 43.199219 52.5 43.199219 52.5 42 53.5 C 40.699219 55.199219 40.699219 56.5 40.699219 58.699219 C 40.699219 59.800781 40.699219 59.800781 40.601562 61 C 40.601562 61.800781 40.601562 62.601562 40.601562 63.398438 C 40.601562 65 40.5 66.5 40.5 68.101562 C 40.5 69.101562 40.5 69.101562 40.5 70.199219 C 40.398438 71.800781 40.398438 71.800781 39.699219 72.5 C 37.199219 72.699219 34.601562 72.699219 32.101562 72.699219 C 31.101562 72.699219 31.101562 72.699219 29.898438 72.800781 C 24 72.898438 24 72.898438 21.398438 70.699219 C 19.300781 68.398438 18.898438 67.398438 18.898438 64.398438 C 18.898438 63.800781 18.898438 63.101562 18.898438 62.398438 C 18.898438 59.5 18.800781 56.699219 18.800781 53.800781 C 18.800781 52.300781 18.800781 50.800781 18.699219 49.300781 C 18.699219 47.101562 18.699219 44.898438 18.601562 42.699219 C 18.601562 42 18.601562 41.300781 18.601562 40.601562 C 18.601562 37.398438 18.699219 35.699219 20.601562 32.898438 C 22.800781 30.898438 25 29.101562 27.398438 27.5 C 27.898438 27.199219 28.300781 26.898438 28.800781 26.601562 C 29.699219 25.898438 30.800781 25.300781 31.699219 24.601562 C 33.199219 23.699219 34.601562 22.601562 36 21.601562 C 44.898438 15.898438 44.898438 15.898438 49.199219 16.398438 Z M 40.898438 23.601562 C 40.398438 23.898438 40 24.300781 39.398438 24.5 C 37.800781 25.5 36.300781 26.601562 34.699219 27.601562 C 33.699219 28.300781 32.5 29.101562 31.5 29.800781 C 30.5 30.5 29.398438 31.199219 28.398438 31.898438 C 27.898438 32.199219 27.398438 32.601562 26.898438 32.898438 C 24.398438 34.5 24.398438 34.5 22.601562 36.898438 C 22.5 39.101562 22.5 41.199219 22.5 43.300781 C 22.5 44 22.5 44.601562 22.5 45.300781 C 22.5 46.699219 22.5 48.101562 22.5 49.300781 C 22.5 51.398438 22.5 53.398438 22.398438 55.5 C 22.398438 56.800781 22.398438 58.101562 22.398438 59.398438 C 22.398438 60 22.398438 60.699219 22.398438 61.199219 C 22.398438 64.601562 22.398438 64.601562 24 67.800781 C 26.398438 69.300781 28.699219 69.199219 31.5 68.898438 C 32.101562 68.898438 32.5 68.898438 33.101562 68.898438 C 34.398438 68.898438 35.699219 68.800781 37 68.800781 C 37 68.300781 37 67.898438 37 67.398438 C 37.101562 65.300781 37.101562 63.300781 37.199219 61.199219 C 37.199219 60.5 37.199219 59.699219 37.300781 59 C 37.300781 58.300781 37.300781 57.601562 37.398438 56.898438 C 37.398438 56.199219 37.398438 55.601562 37.5 54.898438 C 37.699219 53.101562 38.199219 51.898438 39.101562 50.300781 C 41.601562 48.300781 44.601562 48.699219 47.601562 48.699219 C 48.398438 48.699219 48.398438 48.699219 49.101562 48.699219 C 54 48.699219 54 48.699219 56.101562 50.300781 C 57.5 52.5 57.699219 54.300781 57.800781 56.898438 C 57.800781 57.898438 57.800781 57.898438 57.898438 59 C 57.898438 59.699219 57.898438 60.5 58 61.199219 C 58 62.300781 58 62.300781 58.101562 63.398438 C 58.199219 65.199219 58.199219 67 58.300781 68.800781 C 60.101562 68.898438 62 68.898438 63.800781 69 C 64.398438 69 64.800781 69 65.398438 69.101562 C 67.699219 69.101562 69.300781 69.101562 71.300781 67.800781 C 73.101562 65.199219 73 62.601562 73 59.398438 C 73 58.699219 73 58.101562 73 57.398438 C 73 56 73 54.800781 73 53.398438 C 73 51.300781 73 49.300781 73 47.300781 C 73 46 73 44.699219 73 43.398438 C 73 42.800781 73 42.101562 73 41.601562 C 73 38.601562 72.898438 37.199219 70.898438 34.800781 C 67.699219 32.300781 64.300781 30.101562 61 27.898438 C 59.699219 27.101562 58.5 26.199219 57.199219 25.398438 C 56.398438 24.800781 55.601562 24.398438 54.800781 23.800781 C 54.101562 23.300781 53.300781 22.898438 52.601562 22.300781 C 47.699219 19.898438 45.199219 20.800781 40.898438 23.601562 Z M 40.898438 23.601562 "/>
</g>
</svg>

<?xml version="1.0" encoding="utf-8"?>
<!-- Generator: Adobe Illustrator 24.3.0, SVG Export Plug-In . SVG Version: 6.00 Build 0)  -->
<svg version="1.1" id="Слой_1" xmlns="http://www.w3.org/2000/svg" xmlns:xlink="http://www.w3.org/1999/xlink" x="0px" y="0px"
	 viewBox="0 0 95 95" style="enable-background:new 0 0 95 95;" xml:space="preserve">
<style type="text/css">
	.st0{fill:none;stroke:#000000;stroke-width:2.7832;stroke-miterlimit:1.8555;}
	.st1{fill:none;stroke:#000000;stroke-width:2;stroke-miterlimit:10;}
</style>
<g>
	<path class="st0" d="M24.7,87h45.6l22.8-39.5L70.3,8H24.7L1.9,47.5L24.7,87z"/>
	<path class="st1" d="M49.2,16.4c4.3,1.6,8,4.3,11.7,6.9c1.5,1,3,2.1,4.5,3.1c0.9,0.7,2,1.4,2.9,2c0.5,0.3,0.9,0.6,1.4,0.9
		c6,4.3,6,4.3,6.6,7.7c0.1,2,0.1,3.8,0.1,5.6c0,0.7,0,1.4,0,2.1c0,1.5,0,3,0,4.4c0,2.2,0,4.5,0,6.7c0,1.4,0,2.9,0,4.3
		c0,0.7,0,1.4,0,2.1c0,3.1-0.1,5.3-2.2,7.8c-2.4,2.3-3.6,2.5-6.8,2.5c-1,0-1,0-2.1,0c-0.7,0-1.5,0-2.2,0s-1.5,0-2.2,0s-1.4,0-2.1,0
		s-1.3,0-2,0c-1.5-0.1-1.5-0.1-2.2-0.8c-0.1-1.3-0.1-2.5-0.1-3.7c0-0.8,0-1.5-0.1-2.3c0-1.6-0.1-3.2-0.1-4.8c0-0.8,0-1.5-0.1-2.3
		c0-0.7,0-1.4,0-2.1c-0.3-2.1-0.7-2.8-2.4-3.9c-2.1-0.3-2.1-0.3-4.3-0.2c-0.8,0-1.5,0-2.3,0c-2,0.1-2,0.1-3.2,1.1
		c-1.3,1.7-1.3,3-1.3,5.2c0,1.1,0,1.1-0.1,2.3c0,0.8,0,1.6,0,2.4c0,1.6-0.1,3.1-0.1,4.7c0,1,0,1,0,2.1c-0.1,1.6-0.1,1.6-0.8,2.3
		c-2.5,0.2-5.1,0.2-7.6,0.2c-1,0-1,0-2.2,0.1c-5.9,0.1-5.9,0.1-8.5-2.1c-2.1-2.3-2.5-3.3-2.5-6.3c0-0.6,0-1.3,0-2
		c0-2.9-0.1-5.7-0.1-8.6c0-1.5,0-3-0.1-4.5c0-2.2,0-4.4-0.1-6.6c0-0.7,0-1.4,0-2.1c0-3.2,0.1-4.9,2-7.7c2.2-2,4.4-3.8,6.8-5.4
		c0.5-0.3,0.9-0.6,1.4-0.9c0.9-0.7,2-1.3,2.9-2c1.5-0.9,2.9-2,4.3-3C44.9,15.9,44.9,15.9,49.2,16.4z M40.9,23.6
		c-0.5,0.3-0.9,0.7-1.5,0.9c-1.6,1-3.1,2.1-4.7,3.1c-1,0.7-2.2,1.5-3.2,2.2s-2.1,1.4-3.1,2.1c-0.5,0.3-1,0.7-1.5,1
		c-2.5,1.6-2.5,1.6-4.3,4c-0.1,2.2-0.1,4.3-0.1,6.4c0,0.7,0,1.3,0,2c0,1.4,0,2.8,0,4c0,2.1,0,4.1-0.1,6.2c0,1.3,0,2.6,0,3.9
		c0,0.6,0,1.3,0,1.8c0,3.4,0,3.4,1.6,6.6c2.4,1.5,4.7,1.4,7.5,1.1c0.6,0,1,0,1.6,0c1.3,0,2.6-0.1,3.9-0.1c0-0.5,0-0.9,0-1.4
		c0.1-2.1,0.1-4.1,0.2-6.2c0-0.7,0-1.5,0.1-2.2c0-0.7,0-1.4,0.1-2.1c0-0.7,0-1.3,0.1-2c0.2-1.8,0.7-3,1.6-4.6c2.5-2,5.5-1.6,8.5-1.6
		c0.8,0,0.8,0,1.5,0c4.9,0,4.9,0,7,1.6c1.4,2.2,1.6,4,1.7,6.6c0,1,0,1,0.1,2.1c0,0.7,0,1.5,0.1,2.2c0,1.1,0,1.1,0.1,2.2
		c0.1,1.8,0.1,3.6,0.2,5.4c1.8,0.1,3.7,0.1,5.5,0.2c0.6,0,1,0,1.6,0.1c2.3,0,3.9,0,5.9-1.3c1.8-2.6,1.7-5.2,1.7-8.4c0-0.7,0-1.3,0-2
		c0-1.4,0-2.6,0-4c0-2.1,0-4.1,0-6.1c0-1.3,0-2.6,0-3.9c0-0.6,0-1.3,0-1.8c0-3-0.1-4.4-2.1-6.8c-3.2-2.5-6.6-4.7-9.9-6.9
		c-1.3-0.8-2.5-1.7-3.8-2.5c-0.8-0.6-1.6-1-2.4-1.6c-0.7-0.5-1.5-0.9-2.2-1.5C47.7,19.9,45.2,20.8,40.9,23.6z"/>
</g>
</svg>
